X:1
T:Title
%%score { ( 1 4 ) | ( 2 3 ) }
L:1/8
Q:1/4=90
M:4/4
K:Ab
V:1 treble nm="Grand Piano"
V:4 treble 
V:2 treble 
V:3 treble 
V:1
 c3 c [Fe][Fd] [=EA]>[Ed] | c4 A4 | c3 B G[Fd] c>G | B4 A4 | c3 c [Fe][Fd] [=EA]>[Ed] | %5
w: J.~M.~Dungan * * * * *|||||
 [Ec]4 [CEA]4 | [=Dc]3 [DB] [D=A][DB][Ec][F=d] |[M:9/8] e6 z3 |[M:4/4] c3 c [Fe][Fd] [=EA]>[Ed] | %9
w: ||||
 c4 A4 | c3 B Gd c>G | B4 A4 | c3 c [Fe][Fd] [=EA]>[Ed] | c4 A4 | %14
w: |||||
[M:35/32] c3 BG[Fd]c-(3:2:4c3/2-c/4B3/4-B/8 |[M:4/4] [CEA]8 |] %16
w: ||
V:2
 [A,EA]3 [A,E_G][K:bass] [D,D][D,D] [D,D]>[D,A,] | [A,E]4 [A,CE]4 | %2
 [E,E]3 [E,DE] [E,B,E][E,E] [E,E]>[E,B,E] | D4 z4 | %4
 [A,EA]3 [A,E_G][K:bass] [D,D][D,D] [D,D]>[D,A,] | A,4 A,,4 | %6
 [B,,A,]3 [B,,A,] [B,,A,][B,,A,][B,,A,][B,,A,] |[M:9/8] E,-[E,-A,][E,-B,] [E,-C] [E,-D]2 [E,B,G]3 | %8
[M:4/4][K:treble] [A,EA]3 [A,E_G][K:bass] [D,D][D,D] [D,D]>[D,A,] | [A,E]4 [A,CE]4 | %10
 [E,E]3 [E,DE] [E,B,E][E,E] [E,DE]>[E,B,E] | D4 z4 | %12
 [A,EA]3 [A,E_G][K:bass] [D,D][D,D] [D,D]>[D,A,] | [A,E]4 [A,CE]4 | %14
[M:35/32] [E,E]3 [E,DE][E,B,E][E,E][E,E]-(3:2:4[E,E]3/2-[E,E]/4[E,DE]3/4-[E,DE]/8 | %15
[M:4/4] [A,,A,]8 |] %16
V:3
 x4[K:bass] x4 | x8 | x8 | [A,E]4- [A,CE]4 | x4[K:bass] x4 | x8 | x8 |[M:9/8] .[G,E]3 z3 z3 | %8
[M:4/4][K:treble] x4[K:bass] x4 | x8 | x8 | [A,E]4- [A,CE]4 | x4[K:bass] x4 | x8 |[M:35/32] x35/4 | %15
[M:4/4] x8 |] %16
V:4
 x8 | x8 | x8 | x8 | x8 | x8 | x8 |[M:9/8] z FG A B2 d3 |[M:4/4] x8 | x8 | x8 | x8 | x8 | x8 | %14
[M:35/32] x35/4 |[M:4/4] x8 |] %16

